X:13261
T:Polca d'Os Ozcos (XA 17)
R:Polca
C:Tradicional
S:Msica Tradicional Asturiana, (C) Tello & Tito. Asturies, 2001.
S:http://pagina.de/MusTradAst <telloytito@asturies.org>
O:Os Ozcos
A:Asturies
Z:Mtodu de Xuacu Amieva 17
M:2/4
L:1/8
Q:1/4=100
K:C
|: C/C/C/C/ CD|E/EC/ EA|~G/FE/ F~D|C4 :|
|: G/F/G/A/ .FF|~F/E/F/G/ E2|~E/D/E/F/ .DD|G/F/~E/D/ C2 :|
